!!!COM: Palestrina, Giovanni Perluigi da
!!!OPR: Missa Tu es Petrus (1601)
!!!OMD: Credo
!!!OTL: Crucifixus
**kern	**kern	**kern	**kern
*Itenor	*Icalto	*Icalto	*Icant
!Tenor	!Altus 2	!Altus 1	!Cantus
*clefGv2	*clefG2	*clefG2	*clefG2
*k[]	*k[]	*k[]	*k[]
*G:mix	*G:mix	*G:mix	*G:mix
*M4/2	*M4/2	*M4/2	*M4/2
=80	=80	=80	=80
0r	1r	0r	0dd
.	[1g	.	.
=81	=81	=81	=81
0r	2g]	0r	1b
.	2e	.	.
.	1a	.	1cc
=82	=82	=82	=82
0r	1g	0r	1b
.	2e	.	2g
.	2f#	.	2a
=83	=83	=83	=83
0r	2g	0r	2b
.	2e	.	2cc
.	4d	.	4dd
.	4e	.	4cc
.	4f	.	4a
.	4g	.	4b
=84	=84	=84	=84
0r	4a	1r	4cc
.	4b	.	4dd
.	1cc	.	4ee
.	.	.	4cc
.	.	[1g	1dd
.	2b	.	.
=85	=85	=85	=85
1.c	2cc	1g]	1ee
.	2cc	.	.
.	2g	1e	2.cc
2A	[2a	.	.
.	.	.	4cc
=86	=86	=86	=86
1d	2a]	1f	2a
.	4g	.	2b
.	4f	.	.
2c	2g	1e	[1cc
[2A	2a	.	.
=87	=87	=87	=87
2A]	2e	2c	2cc]
2B	2g	2d	2b
2c	2g	2e	2g
2A	2c	2f	2a
=88	=88	=88	=88
4G	0d	4g	1b
4A	.	4f	.
4B	.	4d	.
4c	.	4e	.
4d	.	4f	2.a
4e	.	4g	.
[2f	.	4a	.
.	.	4f	4b
=89	=89	=89	=89
2f]	1c	1g	1.cc
2e	.	.	.
1f	2r	[1a	.
.	2a	.	2ff
=90	=90	=90	=90
0r	2.cc	1a]	2.ee
.	4b	.	4dd
.	2a	1r	2cc
.	2g	.	2b
=91	=91	=91	=91
2r	1cc	2r	1a
2f	.	2a	.
2.e	2.c	2.cc	1g
4d	4d	4b	.
=92	=92	=92	=92
2c	4e	2a	0r
.	4f	.	.
2B	1g	2g	.
1A	.	1cc	.
.	2f#	.	.
=93	=93	=93	=93
1G	1g	1b	1r
[1c	[1g	[1cc	[1ee
=94	=94	=94	=94
1c]	1g]	1cc]	1ee]
1G	1g	1b	1dd
=95	=95	=95	=95
2.A	2e	1.a	1cc
.	2f	.	.
4B	.	.	.
2c#	2e	.	1a
2d	2a	2f	.
=96	=96	=96	=96
1G	2.g	4e	2b-
.	.	4d	.
.	.	1d	2b-
.	4f	.	.
1A	1e	.	1a
.	.	2c#	.
=97	=97	=97	=97
2d	1f#	2d	2r
2d	.	2a	2dd
2g	1r	2b	2dd
2c	.	2cc	2ee
=98	=98	=98	=98
1d	1r	2a	2ff
.	.	2b	2dd
1A	2r	2.cc	[1ee
.	2a	.	.
.	.	8b	.
.	.	8a	.
=99	=99	=99	=99
0r	2b	2g	1ee]
.	2cc	2a	.
.	2a	2f	1dd
.	2b	2g	.
=100	=100	=100	=100
0r	2.cc	2.c	2ee
.	.	.	2.ee
.	8b	4d	.
.	8a	.	.
.	2g	2e	.
.	.	.	4dd
.	2a	2f	[2cc
=101	=101	=101	=101
2r	2f	1d	2cc]
2G	2g	.	2b
2A	1e	2r	1cc
[2c	.	2g	.
=102	=102	=102	=102
2c]	2r	2a	0r
2B	2g	1g	.
1A	2a	.	.
.	[2cc	2f	.
=103	=103	=103	=103
1G	2cc]	2e	2r
.	2b	2d	2dd
1r	2a	4c	2ee
.	.	4d	.
.	4g	4e	[2gg
.	4a	4c	.
=104	=104	=104	=104
0r	4b	1d	2gg]
.	8a	.	.
.	8g	.	.
.	4a	.	2ff
.	4b	.	.
.	1cc	4c	1ee
.	.	4d	.
.	.	4e	.
.	.	4f	.
=105	=105	=105	=105
1r	1b	1g	1dd
1G	2r	1b	2r
.	[2g	.	[2dd
=106	=106	=106	=106
1d	2g]	1a	2dd]
.	2f#	.	2dd
1g	2g	2b	1dd
.	2b	2g	.
=107	=107	=107	=107
2f	2.cc	2a	2ff
2e	.	2.cc	2gg
.	4b	.	.
2.f	2a	.	[1ff
.	.	4b	.
.	[2cc	4a	.
4e	.	4g	.
=108	=108	=108	=108
1d	4cc]	1f	1ff]
.	8b	.	.
.	8a	.	.
.	2b	.	.
2c	2cc	2g	2ee
2f	2a	2a	2cc
=109	=109	=109	=109
2e	2g	2b	2ee
2c	2a	2cc	2ee
2.d	2.f	2.a	2.ff
4d	4f	4b	4ff
=110	=110	=110	=110
1c	2a	1cc	1ee
.	1g	.	.
1d	.	1a	1dd
.	2f#	.	.
=111	=111	=111	=111
1G	1g	1b	1dd
2r	2r	2r	2r
2G	2b	2g	2dd
=112	=112	=112	=112
2.G	2.b	2.g	2.dd
4G	4b	4g	4dd
2G	2b	2g	2dd
2c	2cc	2g	2ee
=113	=113	=113	=113
2d	2a	2f	2dd
2e	2g	2e	2cc#
2f#	2a	2d	2dd
2g	2b	2G	2dd
=114	=114	=114	=114
2.c	2.cc	2.g	2.ee
4c	4cc	4g	4ee
2c	2cc	2g	2ee
[2f	[2cc	[2a	[2ff
=115	=115	=115	=115
2f]	2cc]	2a]	2ff]
2c	2cc	2g	2ee
[1d	2.a	2f	1dd
.	.	2g	.
.	4g	.	.
=116	=116	=116	=116
1d]	1f	2a	2dd
.	.	2b	2dd
1c	2g	[1cc	2ee
.	2g	.	4gg
.	.	.	4ff
=117	=117	=117	=117
2r	2a	1cc]	4ee
.	.	.	4dd
2c	4cc	.	2ee
.	4b	.	.
2d	4a	1f	2dd
.	4g	.	.
2f	2a	.	[2cc
=118	=118	=118	=118
2e	2g	2c	2cc]
2d	1f	2f	2b
1c	.	2g	[1cc
.	2e	2g	.
=119	=119	=119	=119
2r	2f	1a	1cc]
1f	1a	.	.
.	.	1r	2r
2g	2e	.	[2cc
=120	=120	=120	=120
1a	1f	0r	2cc]
.	.	.	2dd
2g	2c	.	1ee
2c	[2cc	.	.
=121	=121	=121	=121
2.g	2cc]	0r	2dd
.	4b	.	2g
4f	4a	.	.
4e	2b	.	4gg
4d	.	.	4ff
[2c	4cc	.	4ee
.	4b	.	4dd
=122	=122	=122	=122
2c]	4a	1r	2cc
.	4g	.	.
2B	1g	.	2dd
1A	.	1c	2ee
.	2f#	.	4dd
.	.	.	4cc
=123	=123	=123	=123
1G	1g	1d	1.b
2r	2g	1e	.
[2g	2g	.	2cc
=124	=124	=124	=124
2g]	1a	1d	0dd
2f#	.	.	.
1g	1b	2r	.
.	.	[2g	.
=125	=125	=125	=125
1c	2cc	2g]	0ee
.	2g	2.cc	.
2r	2.cc	.	.
.	.	4b	.
2c	.	4a	.
.	4b	4g	.
=126	=126	=126	=126
1d	4a	2f	1dd
.	4g	.	.
.	2f	1a	.
1e	1g	.	2.b
.	.	[2g	.
.	.	.	4cc
=127	=127	=127	=127
1d	1a	2g]	1dd
.	.	2f#	.
2G	1b	1g	2dd
[2g	.	.	2g
=128	=128	=128	=128
4g]	2e	2r	2.gg
4f	.	.	.
4e	2.g	2c	.
4d	.	.	4ff
[1c	.	1g	4ee
.	4f	.	4dd
.	4e	.	4cc
.	4d	.	4dd
=129	=129	=129	=129
2c]	2c	1g	2ee
2B	2d	.	2dd
1c	1e	1g	1cc
=130	=130	=130	=130
0G	0d	0g	0b
*-	*-	*-	*-
!!!CDT: 1525/^1526/-1594/2/2
!!!OCY: Italia
!!!AGN: Mass (Paraphrase)
!!!AST: renaissance, vocal
!!!ASW: Antiphon
!!!PWK: Masses, Book 12
!!!RNB: Cadence finals: C
!!!YOR: Le Opere Complete, v. 29, p. 123
!!!YOO: Rome, Italy: Fratelli Scalera
!!!END: 1992//
!!!EED: John Miller
!!!YEC: Copyright 2000, John Miller
!!!YEN: United States of America
!!!YEM: Rights to all derivative electronic formats reserved.
!!!YEM: Refer to licensing agreement for further details.
!!!YEM: This file must be accompanied by the licensing agreement.
!!!YEM: A copy of the licensing agreement may be found at http://www.music-cog.ohio-state.edu/HumdrumDatabases/Palestrina/license.txt
!!!EMD: converted to Humdrum by Bret Aarden
